X: 1
T: The Crosses Of Annagh
R: reel
M: 4/4
L: 1/8
K: Ador
|:eAAG A2(3Bcd| e~g3 edBA|~G3B A~E3|DEGB AGED|
(3EFG BG A2(3Bcd| e~g3 edBA|GABd gedB|GABG ABcd:|
|:e~a3 bage|aeba gedB|dBde ~g2bg|agba ~g2fg|
e~a3 bage|aeba gedB|GABd gedB|GABG ABcd:|


Tune 1170	Setting 14435

